**kern	**silbe	**kern	**silbe	**kern	**silbe	**kern	**silbe	**kern	**silbe
*ICvox	*	*ICvox	*	*ICvox	*	*ICvox	*	*ICvox	*
=1	=1	=1	=1	=1	=1	=1	=1	=1	=1
*G:	*	*G:	*	*G:	*	*G:	*	*G:	*
*M4/4	*	*M4/4	*	*M4/4	*	*M4/4	*	*M4/4	*
*clefF4	*	*clefF4	*	*clefF4	*	*clefF4	*	*clefF4	*
4.f	Oh	1r	.	1r	.	1r	.	1r	.
8d	_	.	.	.	.	.	.	.	.
2c	!	.	.	.	.	.	.	.	.
=2	=2	=2	=2	=2	=2	=2	=2	=2	=2
2r	.	1r	.	1r	.	1r	.	1r	.
8r	.	.	.	.	.	.	.	.	.
8f	Mm	.	.	.	.	.	.	.	.
8f	_	.	.	.	.	.	.	.	.
8d	_	.	.	.	.	.	.	.	.
=3	=3	=3	=3	=3	=3	=3	=3	=3	=3
[2.f	ah	1r	.	1r	.	1r	.	1r	.
8f]	_	.	.	.	.	.	.	.	.
8e	_	.	.	.	.	.	.	.	.
=4	=4	=4	=4	=4	=4	=4	=4	=4	=4
8d	_	1r	.	1r	.	1r	.	1r	.
[8c	_	.	.	.	.	.	.	.	.
4c]	!	.	.	.	.	.	.	.	.
8r	.	.	.	.	.	.	.	.	.
8f	Ooh	.	.	.	.	.	.	.	.
8f	_	.	.	.	.	.	.	.	.
8d	oh	.	.	.	.	.	.	.	.
=5	=5	=5	=5	=5	=5	=5	=5	=5	=5
4.f	_	1r	.	1r	.	1r	.	1r	.
8d	_	.	.	.	.	.	.	.	.
2c	!	.	.	.	.	.	.	.	.
=6	=6	=6	=6	=6	=6	=6	=6	=6	=6
8r	.	1r	.	1r	.	1r	.	1r	.
8f	Ah	.	.	.	.	.	.	.	.
8f	_	.	.	.	.	.	.	.	.
8d	_	.	.	.	.	.	.	.	.
4f	_	.	.	.	.	.	.	.	.
8f	_	.	.	.	.	.	.	.	.
8d	_	.	.	.	.	.	.	.	.
=7	=7	=7	=7	=7	=7	=7	=7	=7	=7
[2f	_	1r	.	1r	.	1r	.	1r	.
8f]	_	.	.	.	.	.	.	.	.
[8g	_	.	.	.	.	.	.	.	.
8g]	,	.	.	.	.	.	.	.	.
8e	oh	.	.	.	.	.	.	.	.
=8	=8	=8	=8	=8	=8	=8	=8	=8	=8
8d	_	1r	.	1r	.	1r	.	1r	.
cq	_	.	.	.	.	.	.	.	.
8d	!	.	.	.	.	.	.	.	.
4r	.	.	.	.	.	.	.	.	.
2r	.	.	.	.	.	.	.	.	.
=9	=9	=9	=9	=9	=9	=9	=9	=9	=9
8.B	Is	1r	.	1r	.	1r	.	1r	.
[16B	this	.	.	.	.	.	.	.	.
8B]	_	.	.	.	.	.	.	.	.
8B	the	.	.	.	.	.	.	.	.
8c	age	.	.	.	.	.	.	.	.
8B	of	.	.	.	.	.	.	.	.
8B	the	.	.	.	.	.	.	.	.
[8B	thun-	.	.	.	.	.	.	.	.
=10	=10	=10	=10	=10	=10	=10	=10	=10	=10
8B]	_	1r	.	1r	.	1r	.	1r	.
8B	-der	.	.	.	.	.	.	.	.
8A	and	.	.	.	.	.	.	.	.
[8B	rage,	.	.	.	.	.	.	.	.
8B]	_	.	.	.	.	.	.	.	.
8B	can	.	.	.	.	.	.	.	.
8d	you	.	.	.	.	.	.	.	.
[8G	feel	.	.	.	.	.	.	.	.
=11	=11	=11	=11	=11	=11	=11	=11	=11	=11
8G]	_	1r	.	1r	.	1r	.	1r	.
8G	the	.	.	.	.	.	.	.	.
8G	ground	.	.	.	.	.	.	.	.
[8G	move	.	.	.	.	.	.	.	.
8G]	_	.	.	.	.	.	.	.	.
8G	'round	.	.	.	.	.	.	.	.
8G	your	.	.	.	.	.	.	.	.
8G	feet	.	.	.	.	.	.	.	.
=12	=12	=12	=12	=12	=12	=12	=12	=12	=12
24G	_	1r	.	1r	.	1r	.	1r	.
24F	_	.	.	.	.	.	.	.	.
24E	_	.	.	.	.	.	.	.	.
24F	_	.	.	.	.	.	.	.	.
24E	_	.	.	.	.	.	.	.	.
24D	?	.	.	.	.	.	.	.	.
4r	.	.	.	.	.	.	.	.	.
8r	.	.	.	.	.	.	.	.	.
8c	If	.	.	.	.	.	.	.	.
8B	you	.	.	.	.	.	.	.	.
[8B	take	.	.	.	.	.	.	.	.
=13	=13	=13	=13	=13	=13	=13	=13	=13	=13
8B]	_	1r	.	1r	.	1r	.	1r	.
8B	one	.	.	.	.	.	.	.	.
8B	step	.	.	.	.	.	.	.	.
[8B	clo-	.	.	.	.	.	.	.	.
8B]	_	.	.	.	.	.	.	.	.
8c	-ser	.	.	.	.	.	.	.	.
8B	it-	.	.	.	.	.	.	.	.
8A	-'ll	.	.	.	.	.	.	.	.
=14	=14	=14	=14	=14	=14	=14	=14	=14	=14
8B	lead	1r	.	1r	.	1r	.	1r	.
8B	to	.	.	.	.	.	.	.	.
8A	a	.	.	.	.	.	.	.	.
[8B	no-	.	.	.	.	.	.	.	.
8B]	_	.	.	.	.	.	.	.	.
8d	-ther,	.	.	.	.	.	.	.	.
8r	.	.	.	.	.	.	.	.	.
8F	the	.	.	.	.	.	.	.	.
=15	=15	=15	=15	=15	=15	=15	=15	=15	=15
8G	cross-	1r	.	1r	.	1r	.	1r	.
8G	-road	.	.	.	.	.	.	.	.
8F	a-	.	.	.	.	.	.	.	.
[8G	-bove	.	.	.	.	.	.	.	.
8G]	_	.	.	.	.	.	.	.	.
8G	is	.	.	.	.	.	.	.	.
8A	where	.	.	.	.	.	.	.	.
8G	we	.	.	.	.	.	.	.	.
=16	=16	=16	=16	=16	=16	=16	=16	=16	=16
8G	_	1r	.	1r	.	1r	.	1r	.
8F	_	.	.	.	.	.	.	.	.
8F	meet.	.	.	.	.	.	.	.	.
8r	.	.	.	.	.	.	.	.	.
8r	.	.	.	.	.	.	.	.	.
[8e	I	.	.	.	.	.	.	.	.
8e]	_	.	.	.	.	.	.	.	.
[8d	shout	.	.	.	.	.	.	.	.
=17	=17	=17	=17	=17	=17	=17	=17	=17	=17
8d]	_	1r	.	1r	.	1r	.	1r	.
[8G	out	.	.	.	.	.	.	.	.
8G]	_	.	.	.	.	.	.	.	.
8G	for	.	.	.	.	.	.	.	.
8G	shel-	.	.	.	.	.	.	.	.
8G	-ter,	.	.	.	.	.	.	.	.
8e	I	.	.	.	.	.	.	.	.
[8d	need	.	.	.	.	.	.	.	.
=18	=18	=18	=18	=18	=18	=18	=18	=18	=18
8d]	_	1r	.	1r	.	1r	.	1r	.
8G	you	.	.	.	.	.	.	.	.
8G	for	.	.	.	.	.	.	.	.
[8A	some-	.	.	.	.	.	.	.	.
8A]	_	.	.	.	.	.	.	.	.
[8A	-thing,,	.	.	.	.	.	.	.	.
8A]	_	.	.	.	.	.	.	.	.
8A	the	.	.	.	.	.	.	.	.
=19	=19	=19	=19	=19	=19	=19	=19	=19	=19
8.d	whole	1r	.	1r	.	1r	.	1r	.
[16d	world's	.	.	.	.	.	.	.	.
8d]	_	.	.	.	.	.	.	.	.
[8G	out,	.	.	.	.	.	.	.	.
4.G]	_	.	.	.	.	.	.	.	.
8E	they're	.	.	.	.	.	.	.	.
=20	=20	=20	=20	=20	=20	=20	=20	=20	=20
6A	all	1r	.	1r	.	1r	.	1r	.
6A	on	.	.	.	.	.	.	.	.
6A	the	.	.	.	.	.	.	.	.
8G	street	.	.	.	.	.	.	.	.
8F	_	.	.	.	.	.	.	.	.
8r	.	.	.	.	.	.	.	.	.
8F	Con-	.	.	.	.	.	.	.	.
=21	=21	=21	=21	=21	=21	=21	=21	=21	=21
4E-	-trol	1r	.	1r	.	1r	.	1r	.
8B-	your-	.	.	.	.	.	.	.	.
[8B-	-self	.	.	.	.	.	.	.	.
2B-_	_	.	.	.	.	.	.	.	.
=22	=22	=22	=22	=22	=22	=22	=22	=22	=22
4B-]	,	1r	.	1r	.	1r	.	1r	.
4r	.	.	.	.	.	.	.	.	.
2r	.	.	.	.	.	.	.	.	.
=23	=23	=23	=23	=23	=23	=23	=23	=23	=23
8F	love	1r	.	1r	.	1r	.	1r	.
[8c	is	.	.	.	.	.	.	.	.
8c]	_	.	.	.	.	.	.	.	.
[8c	all	.	.	.	.	.	.	.	.
8c]	_	.	.	.	.	.	.	.	.
[8d	you	.	.	.	.	.	.	.	.
8d]	_	.	.	.	.	.	.	.	.
16d	need	.	.	.	.	.	.	.	.
[16c	_	.	.	.	.	.	.	.	.
=24	=24	=24	=24	=24	=24	=24	=24	=24	=24
2c_	_	1r	.	1r	.	1r	.	1r	.
8c]	_	.	.	.	.	.	.	.	.
8r	.	.	.	.	.	.	.	.	.
8r	.	.	.	.	.	.	.	.	.
8F	Con-	.	.	.	.	.	.	.	.
=25	=25	=25	=25	=25	=25	=25	=25	=25	=25
8E-	-trol	1r	.	1r	.	1r	.	1r	.
[8B-	your-	.	.	.	.	.	.	.	.
8B-]	_	.	.	.	.	.	.	.	.
[8B-	-self	.	.	.	.	.	.	.	.
2B-_	_	.	.	.	.	.	.	.	.
=26	=26	=26	=26	=26	=26	=26	=26	=26	=26
4B-]	,	1r	.	1r	.	1r	.	1r	.
8r	.	.	.	.	.	.	.	.	.
[8B-	in	.	.	.	.	.	.	.	.
8B-]	_	.	.	.	.	.	.	.	.
8B-	your	.	.	.	.	.	.	.	.
8G	_	.	.	.	.	.	.	.	.
[8G	eyes	.	.	.	.	.	.	.	.
=27	=27	=27	=27	=27	=27	=27	=27	=27	=27
*	*	*clefG2	*	*	*	*	*	*	*
8G]	!	1r	.	1r	.	1r	.	1r	.
8r	.	.	.	.	.	.	.	.	.
4r	.	.	.	.	.	.	.	.	.
8r	.	.	.	.	.	.	.	.	.
8B-	Sanc-	.	.	.	.	.	.	.	.
8B-	-ti-	.	.	.	.	.	.	.	.
8B-	-fy	.	.	.	.	.	.	.	.
=28	=28	=28	=28	=28	=28	=28	=28	=28	=28
8A	your-	1r	.	1r	.	1r	.	1r	.
8A	-self,	.	.	.	.	.	.	.	.
4r	.	.	.	.	.	.	.	.	.
8r	.	.	.	.	.	.	.	.	.
[8d	sanc-	.	.	.	.	.	.	.	.
8d]	_	.	.	.	.	.	.	.	.
8F	-ti-	.	.	.	.	.	.	.	.
=29	=29	=29	=29	=29	=29	=29	=29	=29	=29
4G	-fy!	8r	.	1r	.	1r	.	1r	.
.	.	8d g b dd	Sanc-	.	.	.	.	.	.
4r	.	8c f a cc	-ti-	.	.	.	.	.	.
.	.	[8d g [b [dd	-fy	.	.	.	.	.	.
8r	.	2d_ [g b_ dd_	_	.	.	.	.	.	.
8B-	Be	.	.	.	.	.	.	.	.
8B-	a	.	.	.	.	.	.	.	.
8B-	part	.	.	.	.	.	.	.	.
=30	=30	=30	=30	=30	=30	=30	=30	=30	=30
8A	of	1d] g] b] dd]	!	1r	.	1r	.	1r	.
8A	me,	.	.	.	.	.	.	.	.
4r	.	.	.	.	.	.	.	.	.
8r	.	.	.	.	.	.	.	.	.
[8d	sanc-	.	.	.	.	.	.	.	.
8d]	_	.	.	.	.	.	.	.	.
8F	-ti-	.	.	.	.	.	.	.	.
=31	=31	=31	=31	=31	=31	=31	=31	=31	=31
4G	-fy!	8r	.	1r	.	1r	.	1r	.
.	.	8d g b dd	Sanc-	.	.	.	.	.	.
4r	.	8c f a cc	-ti-	.	.	.	.	.	.
.	.	[8d g [b [dd	-fy	.	.	.	.	.	.
8r	.	2d_ [g b_ dd_	_	.	.	.	.	.	.
8d	Sanc-	.	.	.	.	.	.	.	.
8G	-ti-	.	.	.	.	.	.	.	.
8B-	-fy	.	.	.	.	.	.	.	.
=32	=32	=32	=32	=32	=32	=32	=32	=32	=32
8A	your-	1d] g] b] dd]	!	1r	.	1r	.	1r	.
8A	-se;f,	.	.	.	.	.	.	.	.
4r	.	.	.	.	.	.	.	.	.
8r	.	.	.	.	.	.	.	.	.
[8d	sanc-	.	.	.	.	.	.	.	.
8d]	_	.	.	.	.	.	.	.	.
8F	-ti-	.	.	.	.	.	.	.	.
=33	=33	=33	=33	=33	=33	=33	=33	=33	=33
4G	-fy!	8r	.	1r	.	1r	.	1r	.
.	.	8d g b dd	Sanc-	.	.	.	.	.	.
4r	.	8c f a cc	-ti-	.	.	.	.	.	.
.	.	[8d g [b [dd	-fy	.	.	.	.	.	.
8r	.	2d_ [g b_ dd_	_	.	.	.	.	.	.
8B-	Sanc-	.	.	.	.	.	.	.	.
8B-	-ti-	.	.	.	.	.	.	.	.
8B-	-fy	.	.	.	.	.	.	.	.
=34	=34	=34	=34	=34	=34	=34	=34	=34	=34
8A	your-	1d] g] b] dd]	!	1r	.	1r	.	1r	.
8G	-self,.	.	.	.	.	.	.	.	.
8r	.	.	.	.	.	.	.	.	.
8g	set	.	.	.	.	.	.	.	.
8r	.	.	.	.	.	.	.	.	.
8G	your-	.	.	.	.	.	.	.	.
8G	-self	.	.	.	.	.	.	.	.
8F	_	.	.	.	.	.	.	.	.
=35	=35	=35	=35	=35	=35	=35	=35	=35	=35
4r	.	1r	.	1r	.	1r	.	1r	.
8r	.	.	.	.	.	.	.	.	.
16F	free	.	.	.	.	.	.	.	.
[16G	_	.	.	.	.	.	.	.	.
2G_	_	.	.	.	.	.	.	.	.
=36	=36	=36	=36	=36	=36	=36	=36	=36	=36
4.G]	_	1r	.	1r	.	1r	.	1r	.
8r	.	.	.	.	.	.	.	.	.
2r	.	.	.	.	.	.	.	.	.
=37	=37	=37	=37	=37	=37	=37	=37	=37	=37
1r	.	1r	.	1r	.	1r	.	1r	.
=38	=38	=38	=38	=38	=38	=38	=38	=38	=38
1r	.	1r	.	1r	.	1r	.	1r	.
=39	=39	=39	=39	=39	=39	=39	=39	=39	=39
1r	.	1r	.	1r	.	1r	.	1r	.
=40	=40	=40	=40	=40	=40	=40	=40	=40	=40
1r	.	1r	.	1r	.	1r	.	1r	.
=41	=41	=41	=41	=41	=41	=41	=41	=41	=41
1r	.	1r	.	1r	.	1r	.	1r	.
=42	=42	=42	=42	=42	=42	=42	=42	=42	=42
2r	.	1r	.	1r	.	1r	.	1r	.
4r	.	.	.	.	.	.	.	.	.
8r	.	.	.	.	.	.	.	.	.
8B-	In	.	.	.	.	.	.	.	.
=43	=43	=43	=43	=43	=43	=43	=43	=43	=43
8.B	pic-	1r	.	1r	.	1r	.	1r	.
[16B	-tures	.	.	.	.	.	.	.	.
8B]	_	.	.	.	.	.	.	.	.
8B	of	.	.	.	.	.	.	.	.
8B	li-	.	.	.	.	.	.	.	.
8B	-ving,	.	.	.	.	.	.	.	.
8B	in	.	.	.	.	.	.	.	.
[8f	blood-	.	.	.	.	.	.	.	.
=44	=44	=44	=44	=44	=44	=44	=44	=44	=44
8f]	_	1r	.	1r	.	1r	.	1r	.
8B	-shot	.	.	.	.	.	.	.	.
8A	a	.	.	.	.	.	.	.	.
8B	vi-	.	.	.	.	.	.	.	.
4B	-sion,	.	.	.	.	.	.	.	.
8r	.	.	.	.	.	.	.	.	.
8d	sweet	.	.	.	.	.	.	.	.
=45	=45	=45	=45	=45	=45	=45	=45	=45	=45
16G	mi-	1r	.	1r	.	1r	.	1r	.
16G	-ra-	.	.	.	.	.	.	.	.
[8G	-cles	.	.	.	.	.	.	.	.
8G]	_	.	.	.	.	.	.	.	.
8E	and	.	.	.	.	.	.	.	.
8G	strange	.	.	.	.	.	.	.	.
8G	cir-	.	.	.	.	.	.	.	.
8E	-cum-	.	.	.	.	.	.	.	.
[8G	-stan-	.	.	.	.	.	.	.	.
=46	=46	=46	=46	=46	=46	=46	=46	=46	=46
8G]	_	1r	.	1r	.	1r	.	1r	.
8E	-ces	.	.	.	.	.	.	.	.
4D	_	.	.	.	.	.	.	.	.
8r	.	.	.	.	.	.	.	.	.
8G	I	.	.	.	.	.	.	.	.
8A	see	.	.	.	.	.	.	.	.
8G	the	.	.	.	.	.	.	.	.
=47	=47	=47	=47	=47	=47	=47	=47	=47	=47
8.B	sun	1r	.	1r	.	1r	.	1r	.
[16B	up	.	.	.	.	.	.	.	.
8B]	,	.	.	.	.	.	.	.	.
8B	the	.	.	.	.	.	.	.	.
8B	show-	.	.	.	.	.	.	.	.
8B	-down,	.	.	.	.	.	.	.	.
8A	the	.	.	.	.	.	.	.	.
[8d	cool	.	.	.	.	.	.	.	.
=48	=48	=48	=48	=48	=48	=48	=48	=48	=48
8d]	_	1r	.	1r	.	1r	.	1r	.
8B	wins	.	.	.	.	.	.	.	.
8B	that	.	.	.	.	.	.	.	.
[8B	blow	.	.	.	.	.	.	.	.
8B]	_	.	.	.	.	.	.	.	.
8B	down,	.	.	.	.	.	.	.	.
8c	on	.	.	.	.	.	.	.	.
8d	the	.	.	.	.	.	.	.	.
=49	=49	=49	=49	=49	=49	=49	=49	=49	=49
8.d	big	1r	.	1r	.	1r	.	1r	.
[16G	beat	.	.	.	.	.	.	.	.
8G]	_	.	.	.	.	.	.	.	.
8E	that	.	.	.	.	.	.	.	.
8.G	life-	.	.	.	.	.	.	.	.
[16G	-long	.	.	.	.	.	.	.	.
8G]	_	.	.	.	.	.	.	.	.
8A	ro-	.	.	.	.	.	.	.	.
=50	=50	=50	=50	=50	=50	=50	=50	=50	=50
8G	-mance	1r	.	1r	.	1r	.	1r	.
8E	is	.	.	.	.	.	.	.	.
4D	_	.	.	.	.	.	.	.	.
8r	.	.	.	.	.	.	.	.	.
8d	You've	.	.	.	.	.	.	.	.
8d	got	.	.	.	.	.	.	.	.
8d	a	.	.	.	.	.	.	.	.
=51	=51	=51	=51	=51	=51	=51	=51	=51	=51
6f	gun	1r	.	1r	.	1r	.	1r	.
6f	in	.	.	.	.	.	.	.	.
6f	your	.	.	.	.	.	.	.	.
4d	hand!	.	.	.	.	.	.	.	.
8r	.	.	.	.	.	.	.	.	.
8d	You're	.	.	.	.	.	.	.	.
=52	=52	=52	=52	=52	=52	=52	=52	=52	=52
8f	mak-	1r	.	1r	.	1r	.	1r	.
8d	-ing	.	.	.	.	.	.	.	.
4f	big	.	.	.	.	.	.	.	.
4d	plans!	.	.	.	.	.	.	.	.
4r	.	.	.	.	.	.	.	.	.
=53	=53	=53	=53	=53	=53	=53	=53	=53	=53
8f	Stay	1r	.	1r	.	1r	.	1r	.
8f	with	.	.	.	.	.	.	.	.
8f	me	.	.	.	.	.	.	.	.
e	all	.	.	.	.	.	.	.	.
f	_	.	.	.	.	.	.	.	.
[8e	_	.	.	.	.	.	.	.	.
8e]	_	.	.	.	.	.	.	.	.
8d	through	.	.	.	.	.	.	.	.
8c	the	.	.	.	.	.	.	.	.
cq	night	.	.	.	.	.	.	.	.
[8d	_	.	.	.	.	.	.	.	.
=54	=54	=54	=54	=54	=54	=54	=54	=54	=54
8d]	_	1r	.	1r	.	1r	.	1r	.
Aq	_	.	.	.	.	.	.	.	.
[8B	_	.	.	.	.	.	.	.	.
4B]	!	.	.	.	.	.	.	.	.
4r	.	.	.	.	.	.	.	.	.
8r	.	.	.	.	.	.	.	.	.
8G	Con-	.	.	.	.	.	.	.	.
=55	=55	=55	=55	=55	=55	=55	=55	=55	=55
8E-	-trol	1r	.	1r	.	1r	.	1r	.
[8B-	your-	.	.	.	.	.	.	.	.
8B-]	_	.	.	.	.	.	.	.	.
[8B-	-self	.	.	.	.	.	.	.	.
2B-_	_	.	.	.	.	.	.	.	.
=56	=56	=56	=56	=56	=56	=56	=56	=56	=56
[2B	_	1r	.	1r	.	1r	.	1r	.
8B]	,	.	.	.	.	.	.	.	.
8r	.	.	.	.	.	.	.	.	.
4r	.	.	.	.	.	.	.	.	.
=57	=57	=57	=57	=57	=57	=57	=57	=57	=57
8F	love	1r	.	1r	.	1r	.	1r	.
[8c	is	.	.	.	.	.	.	.	.
8c]	_	.	.	.	.	.	.	.	.
[8c	all	.	.	.	.	.	.	.	.
8c]	_	.	.	.	.	.	.	.	.
[8d	you	.	.	.	.	.	.	.	.
8d]	_	.	.	.	.	.	.	.	.
16d	need	.	.	.	.	.	.	.	.
[16c	_	.	.	.	.	.	.	.	.
=58	=58	=58	=58	=58	=58	=58	=58	=58	=58
2c_	_	1r	.	1r	.	1r	.	1r	.
8c]	_	.	.	.	.	.	.	.	.
8r	.	.	.	.	.	.	.	.	.
8r	.	.	.	.	.	.	.	.	.
8D	Con-	.	.	.	.	.	.	.	.
=59	=59	=59	=59	=59	=59	=59	=59	=59	=59
8E-	-trol	1r	.	1r	.	1r	.	1r	.
[8B-	your	.	.	.	.	.	.	.	.
8B-]	_	.	.	.	.	.	.	.	.
[8B-	self	.	.	.	.	.	.	.	.
2B-]	,	.	.	.	.	.	.	.	.
=60	=60	=60	=60	=60	=60	=60	=60	=60	=60
4r	.	1r	.	1r	.	1r	.	1r	.
8B-	o-	.	.	.	.	.	.	.	.
8G	-pen	.	.	.	.	.	.	.	.
8B-	up	.	.	.	.	.	.	.	.
[8B-	your	.	.	.	.	.	.	.	.
8B-]	_	.	.	.	.	.	.	.	.
B-q	_	.	.	.	.	.	.	.	.
[8B	heart	.	.	.	.	.	.	.	.
=61	=61	=61	=61	=61	=61	=61	=61	=61	=61
8B]	!	1r	.	1r	.	1r	.	1r	.
8r	.	.	.	.	.	.	.	.	.
4r	.	.	.	.	.	.	.	.	.
8r	.	.	.	.	.	.	.	.	.
8B-	Sanc-	.	.	.	.	.	.	.	.
8B-	-ti-	.	.	.	.	.	.	.	.
8B-	-fy	.	.	.	.	.	.	.	.
=62	=62	=62	=62	=62	=62	=62	=62	=62	=62
8A	your-	1r	.	1r	.	1r	.	1r	.
8A	-self,	.	.	.	.	.	.	.	.
4r	.	.	.	.	.	.	.	.	.
8r	.	.	.	.	.	.	.	.	.
[8d	sanc-	.	.	.	.	.	.	.	.
8d]	_	.	.	.	.	.	.	.	.
8F	-ti-	.	.	.	.	.	.	.	.
=63	=63	=63	=63	=63	=63	=63	=63	=63	=63
4G	-fy!	8r	.	1r	.	1r	.	1r	.
.	.	8d g b dd	Sanc-	.	.	.	.	.	.
4r	.	8c f a cc	-ti-	.	.	.	.	.	.
.	.	[8d g [b [dd	-fy	.	.	.	.	.	.
8r	.	2d_ [g b_ dd_	_	.	.	.	.	.	.
8B-	Be	.	.	.	.	.	.	.	.
8B-	a	.	.	.	.	.	.	.	.
8B-	part	.	.	.	.	.	.	.	.
=64	=64	=64	=64	=64	=64	=64	=64	=64	=64
8A	of	1d] g] b] dd]	!	1r	.	1r	.	1r	.
8A	me,	.	.	.	.	.	.	.	.
4r	.	.	.	.	.	.	.	.	.
8r	.	.	.	.	.	.	.	.	.
[8d	sanc-	.	.	.	.	.	.	.	.
8d]	_	.	.	.	.	.	.	.	.
8F	-ti-	.	.	.	.	.	.	.	.
=65	=65	=65	=65	=65	=65	=65	=65	=65	=65
4G	-fy!	8r	.	1r	.	1r	.	1r	.
.	.	8d g b dd	Sanc-	.	.	.	.	.	.
4r	.	8c f a cc	-ti-	.	.	.	.	.	.
.	.	[8d g [b [dd	-fy	.	.	.	.	.	.
8r	.	2d_ [g b_ dd_	_	.	.	.	.	.	.
8B-	Sanc-	.	.	.	.	.	.	.	.
8B-	-ti-	.	.	.	.	.	.	.	.
8B-	-fy	.	.	.	.	.	.	.	.
=66	=66	=66	=66	=66	=66	=66	=66	=66	=66
8A	your-	1d] g] b] dd]	!	1r	.	1r	.	1r	.
8A	-self,	.	.	.	.	.	.	.	.
4r	.	.	.	.	.	.	.	.	.
8r	.	.	.	.	.	.	.	.	.
8G	sanc-	.	.	.	.	.	.	.	.
8F	-ti-	.	.	.	.	.	.	.	.
[8G	-fy	.	.	.	.	.	.	.	.
=67	=67	=67	=67	=67	=67	=67	=67	=67	=67
4G]	_	8r	.	1r	.	1r	.	1r	.
.	.	8d g b dd	Sanc-	.	.	.	.	.	.
16E	_	8c f a cc	-ti-	.	.	.	.	.	.
16D	!	.	.	.	.	.	.	.	.
8r	.	[8d g [b [dd	-fy	.	.	.	.	.	.
8r	.	2d_ [g b_ dd_	_	.	.	.	.	.	.
8B-	Sanc-	.	.	.	.	.	.	.	.
8B-	-ti-	.	.	.	.	.	.	.	.
8B-	-fy	.	.	.	.	.	.	.	.
=68	=68	=68	=68	=68	=68	=68	=68	=68	=68
8A	your	1d] g] b] dd]	!	1r	.	1r	.	1r	.
8G	self,	.	.	.	.	.	.	.	.
8r	.	.	.	.	.	.	.	.	.
8g	set	.	.	.	.	.	.	.	.
8r	.	.	.	.	.	.	.	.	.
8F	your-	.	.	.	.	.	.	.	.
4c	-self	.	.	.	.	.	.	.	.
=69	=69	=69	=69	=69	=69	=69	=69	=69	=69
8B-	free	1r	.	1r	.	1r	.	1r	.
8G	_	.	.	.	.	.	.	.	.
4r	.	.	.	.	.	.	.	.	.
2r	.	.	.	.	.	.	.	.	.
=70	=70	=70	=70	=70	=70	=70	=70	=70	=70
1r	.	1r	.	1r	.	1r	.	1r	.
=71	=71	=71	=71	=71	=71	=71	=71	=71	=71
1r	.	1r	.	1r	.	1r	.	1r	.
=72	=72	=72	=72	=72	=72	=72	=72	=72	=72
1r	.	1r	.	1r	.	1r	.	1r	.
=73	=73	=73	=73	=73	=73	=73	=73	=73	=73
1r	.	1r	.	1r	.	1r	.	1r	.
=74	=74	=74	=74	=74	=74	=74	=74	=74	=74
1r	.	1r	.	1r	.	1r	.	1r	.
=75	=75	=75	=75	=75	=75	=75	=75	=75	=75
1r	.	1r	.	1r	.	1r	.	1r	.
=76	=76	=76	=76	=76	=76	=76	=76	=76	=76
1r	.	1r	.	1r	.	1r	.	1r	.
=77	=77	=77	=77	=77	=77	=77	=77	=77	=77
1r	.	1r	.	1r	.	1r	.	1r	.
=78	=78	=78	=78	=78	=78	=78	=78	=78	=78
1r	.	1r	.	1r	.	1r	.	1r	.
=79	=79	=79	=79	=79	=79	=79	=79	=79	=79
1r	.	1r	.	1r	.	1r	.	1r	.
=80	=80	=80	=80	=80	=80	=80	=80	=80	=80
2r	.	1r	.	1r	.	1r	.	1r	.
4r	.	.	.	.	.	.	.	.	.
8r	.	.	.	.	.	.	.	.	.
8B-	You	.	.	.	.	.	.	.	.
=81	=81	=81	=81	=81	=81	=81	=81	=81	=81
8.B	can't	1r	.	1r	.	1r	.	1r	.
[16B	stop	.	.	.	.	.	.	.	.
12B]	_	.	.	.	.	.	.	.	.
12A	the	.	.	.	.	.	.	.	.
[12B	world	.	.	.	.	.	.	.	.
8B]	_	.	.	.	.	.	.	.	.
8B	for	.	.	.	.	.	.	.	.
8A	a	.	.	.	.	.	.	.	.
[8B	boy	.	.	.	.	.	.	.	.
=82	=82	=82	=82	=82	=82	=82	=82	=82	=82
8B]	_	1r	.	1r	.	1r	.	1r	.
8B	or	.	.	.	.	.	.	.	.
8A	a	.	.	.	.	.	.	.	.
[8B	girl	.	.	.	.	.	.	.	.
8B]	,	.	.	.	.	.	.	.	.
[8d	sweet	.	.	.	.	.	.	.	.
8d]	_	.	.	.	.	.	.	.	.
[8G	vic-	.	.	.	.	.	.	.	.
=83	=83	=83	=83	=83	=83	=83	=83	=83	=83
8G]	_	1r	.	1r	.	1r	.	1r	.
8G	-tims	.	.	.	.	.	.	.	.
8F	of	.	.	.	.	.	.	.	.
[8G	poor	.	.	.	.	.	.	.	.
8G]	_	.	.	.	.	.	.	.	.
8G	cir-	.	.	.	.	.	.	.	.
8F	-cum-	.	.	.	.	.	.	.	.
[8G	-stan-	.	.	.	.	.	.	.	.
=84	=84	=84	=84	=84	=84	=84	=84	=84	=84
8G]	_	1r	.	1r	.	1r	.	1r	.
8E	-ces	.	.	.	.	.	.	.	.
4D	_	.	.	.	.	.	.	.	.
8r	.	.	.	.	.	.	.	.	.
8c	But	.	.	.	.	.	.	.	.
8B	you	.	.	.	.	.	.	.	.
8A	can	.	.	.	.	.	.	.	.
=85	=85	=85	=85	=85	=85	=85	=85	=85	=85
8B	pour	1r	.	1r	.	1r	.	1r	.
8B	back	.	.	.	.	.	.	.	.
8A	the	.	.	.	.	.	.	.	.
[8B	love,	.	.	.	.	.	.	.	.
8B]	_	.	.	.	.	.	.	.	.
8B	swee-	.	.	.	.	.	.	.	.
8A	-ping	.	.	.	.	.	.	.	.
[8B	down	.	.	.	.	.	.	.	.
=86	=86	=86	=86	=86	=86	=86	=86	=86	=86
8B]	_	1r	.	1r	.	1r	.	1r	.
8B	from	.	.	.	.	.	.	.	.
8A	a-	.	.	.	.	.	.	.	.
[8B	-bove,	.	.	.	.	.	.	.	.
8B]	_	.	.	.	.	.	.	.	.
8d	gi-	.	.	.	.	.	.	.	.
8d	-ving	.	.	.	.	.	.	.	.
8e	hope	.	.	.	.	.	.	.	.
=87	=87	=87	=87	=87	=87	=87	=87	=87	=87
4G	_	1r	.	1r	.	1r	.	1r	.
8G	and	.	.	.	.	.	.	.	.
[8G	ma-	.	.	.	.	.	.	.	.
8G]	_	.	.	.	.	.	.	.	.
8G	-king	.	.	.	.	.	.	.	.
8A	more	.	.	.	.	.	.	.	.
8G	chan-	.	.	.	.	.	.	.	.
=88	=88	=88	=88	=88	=88	=88	=88	=88	=88
8r	.	1r	.	1r	.	1r	.	1r	.
8E	-ces	.	.	.	.	.	.	.	.
4D	_	.	.	.	.	.	.	.	.
8r	.	.	.	.	.	.	.	.	.
8d	Well,	.	.	.	.	.	.	.	.
8d	I	.	.	.	.	.	.	.	.
[8f	hope	.	.	.	.	.	.	.	.
=89	=89	=89	=89	=89	=89	=89	=89	=89	=89
8f]	_	1r	.	1r	.	1r	.	1r	.
8d	and	.	.	.	.	.	.	.	.
8f	I	.	.	.	.	.	.	.	.
[8d	pray	.	.	.	.	.	.	.	.
8d]	_	.	.	.	.	.	.	.	.
[8d	that	.	.	.	.	.	.	.	.
8d]	_	.	.	.	.	.	.	.	.
[8f	may-	.	.	.	.	.	.	.	.
=90	=90	=90	=90	=90	=90	=90	=90	=90	=90
8f]	_	1r	.	1r	.	1r	.	1r	.
8d	-be	.	.	.	.	.	.	.	.
4f	some-	.	.	.	.	.	.	.	.
4d	-day,	.	.	.	.	.	.	.	.
8r	.	.	.	.	.	.	.	.	.
8d	you'll	.	.	.	.	.	.	.	.
=91	=91	=91	=91	=91	=91	=91	=91	=91	=91
6f	come	1r	.	1r	.	1r	.	1r	.
6d	back	.	.	.	.	.	.	.	.
6f	down	.	.	.	.	.	.	.	.
6d	here	.	.	.	.	.	.	.	.
6A	and	.	.	.	.	.	.	.	.
6r	.	.	.	.	.	.	.	.	.
=92	=92	=92	=92	=92	=92	=92	=92	=92	=92
8B	show	1r	.	1r	.	1r	.	1r	.
8G	me	.	.	.	.	.	.	.	.
8B	the	.	.	.	.	.	.	.	.
16G	way	.	.	.	.	.	.	.	.
[16F	_	.	.	.	.	.	.	.	.
4.F]	!	.	.	.	.	.	.	.	.
8F	Con-	.	.	.	.	.	.	.	.
=93	=93	=93	=93	=93	=93	=93	=93	=93	=93
8E-	-trol	1r	.	1r	.	1r	.	1r	.
[8B-	your-	.	.	.	.	.	.	.	.
8B-]	_	.	.	.	.	.	.	.	.
[8B-	-self	.	.	.	.	.	.	.	.
2B-]	,	.	.	.	.	.	.	.	.
=94	=94	=94	=94	=94	=94	=94	=94	=94	=94
1r	.	1r	.	1r	.	1r	.	1r	.
=95	=95	=95	=95	=95	=95	=95	=95	=95	=95
8F	love	1r	.	1r	.	1r	.	1r	.
[8c	is	.	.	.	.	.	.	.	.
8c]	_	.	.	.	.	.	.	.	.
[8c	all	.	.	.	.	.	.	.	.
8c]	_	.	.	.	.	.	.	.	.
[8d	you	.	.	.	.	.	.	.	.
8d]	_	.	.	.	.	.	.	.	.
16d	need	.	.	.	.	.	.	.	.
[16c	_	.	.	.	.	.	.	.	.
=96	=96	=96	=96	=96	=96	=96	=96	=96	=96
2c_	_	1r	.	1r	.	1r	.	1r	.
8c]	_	.	.	.	.	.	.	.	.
8r	.	.	.	.	.	.	.	.	.
8r	.	.	.	.	.	.	.	.	.
8F	Con-	.	.	.	.	.	.	.	.
=97	=97	=97	=97	=97	=97	=97	=97	=97	=97
8E-	-trol	1r	.	1r	.	1r	.	1r	.
[8B-	your-	.	.	.	.	.	.	.	.
8B-]	_	.	.	.	.	.	.	.	.
[8B-	-self	.	.	.	.	.	.	.	.
4B-]	,	.	.	.	.	.	.	.	.
4r	.	.	.	.	.	.	.	.	.
=98	=98	=98	=98	=98	=98	=98	=98	=98	=98
8r	.	1r	.	1r	.	1r	.	1r	.
8g	o-	.	.	.	.	.	.	.	.
8g	-pen	.	.	.	.	.	.	.	.
[8g	up	.	.	.	.	.	.	.	.
8g]	_	.	.	.	.	.	.	.	.
[8g	your	.	.	.	.	.	.	.	.
8g]	_	.	.	.	.	.	.	.	.
[8g	heart	.	.	.	.	.	.	.	.
=99	=99	=99	=99	=99	=99	=99	=99	=99	=99
8g]	!	1r	.	1r	.	1r	.	1r	.
8r	.	.	.	.	.	.	.	.	.
4r	.	.	.	.	.	.	.	.	.
8r	.	.	.	.	.	.	.	.	.
8B-	Sanc-	.	.	.	.	.	.	.	.
8B-	-ti-	.	.	.	.	.	.	.	.
8B-	-fy	.	.	.	.	.	.	.	.
=100	=100	=100	=100	=100	=100	=100	=100	=100	=100
8A	your-	1r	.	1r	.	1r	.	1r	.
8A	-self,	.	.	.	.	.	.	.	.
4r	.	.	.	.	.	.	.	.	.
8r	.	.	.	.	.	.	.	.	.
[8d	sanc-	.	.	.	.	.	.	.	.
8d]	_	.	.	.	.	.	.	.	.
8F	-ti-	.	.	.	.	.	.	.	.
=101	=101	=101	=101	=101	=101	=101	=101	=101	=101
4G	-fy!	8r	.	1r	.	1r	.	1r	.
.	.	8d g b dd	Sanc-	.	.	.	.	.	.
4r	.	8c f a cc	-ti-	.	.	.	.	.	.
.	.	[8d g [b [dd	-fy	.	.	.	.	.	.
8r	.	2d_ [g b_ dd_	_	.	.	.	.	.	.
8B-	Sanc-	.	.	.	.	.	.	.	.
8B-	-ti-	.	.	.	.	.	.	.	.
8B-	-fy	.	.	.	.	.	.	.	.
=102	=102	=102	=102	=102	=102	=102	=102	=102	=102
8A	your-	1d] g] b] dd]	!	1r	.	1r	.	1r	.
8A	-self,	.	.	.	.	.	.	.	.
4r	.	.	.	.	.	.	.	.	.
8r	.	.	.	.	.	.	.	.	.
[8d	sanc-	.	.	.	.	.	.	.	.
8d]	_	.	.	.	.	.	.	.	.
8F	-ti-	.	.	.	.	.	.	.	.
=103	=103	=103	=103	=103	=103	=103	=103	=103	=103
4G	-fy!	8r	.	1r	.	1r	.	1r	.
.	.	8d g b dd	Sanc-	.	.	.	.	.	.
4r	.	8c f a cc	-ti-	.	.	.	.	.	.
.	.	[8d g [b [dd	-fy	.	.	.	.	.	.
8r	.	2d_ [g b_ dd_	_	.	.	.	.	.	.
8B-	Sanc-	.	.	.	.	.	.	.	.
8B-	-ti-	.	.	.	.	.	.	.	.
8B-	-fy	.	.	.	.	.	.	.	.
=104	=104	=104	=104	=104	=104	=104	=104	=104	=104
8A	your-	1d] g] b] dd]	!	1r	.	1r	.	1r	.
8A	-self,	.	.	.	.	.	.	.	.
4r	.	.	.	.	.	.	.	.	.
8r	.	.	.	.	.	.	.	.	.
[8d	sanc-	.	.	.	.	.	.	.	.
8d]	_	.	.	.	.	.	.	.	.
8F	-ti-	.	.	.	.	.	.	.	.
=105	=105	=105	=105	=105	=105	=105	=105	=105	=105
4G	-fy!	8r	.	1r	.	1r	.	1r	.
.	.	8d g b dd	Sanc-	.	.	.	.	.	.
4r	.	8c f a cc	-ti-	.	.	.	.	.	.
.	.	[8d g [b [dd	-fy	.	.	.	.	.	.
8r	.	2d_ [g b_ dd_	_	.	.	.	.	.	.
8B-	Sanc-	.	.	.	.	.	.	.	.
8B-	-ti-	.	.	.	.	.	.	.	.
8B-	-fy	.	.	.	.	.	.	.	.
=106	=106	=106	=106	=106	=106	=106	=106	=106	=106
8A	your-	1d] g] b] dd]	!	1r	.	1r	.	1r	.
8G	-self,	.	.	.	.	.	.	.	.
8r	.	.	.	.	.	.	.	.	.
8g	set	.	.	.	.	.	.	.	.
8r	.	.	.	.	.	.	.	.	.
8g	your-	.	.	.	.	.	.	.	.
4g	-self	.	.	.	.	.	.	.	.
=107	=107	=107	=107	=107	=107	=107	=107	=107	=107
[1g	free	8r	.	1r	.	1r	.	1r	.
.	.	8d g b dd	Sanc-	.	.	.	.	.	.
.	.	8c f a cc	-ti-	.	.	.	.	.	.
.	.	[8d g [b [dd	-fy	.	.	.	.	.	.
.	.	2d_ [g b_ dd_	_	.	.	.	.	.	.
=108	=108	=108	=108	=108	=108	=108	=108	=108	=108
1g_	_	1d] g] b] dd]	!	1r	.	1r	.	1r	.
=109	=109	=109	=109	=109	=109	=109	=109	=109	=109
2.g_	_	8r	.	1r	.	1r	.	1r	.
.	.	8d g b dd	Sanc-	.	.	.	.	.	.
.	.	8c f a cc	-ti-	.	.	.	.	.	.
.	.	[8d g [b [dd	-fy	.	.	.	.	.	.
.	.	2d_ [g b_ dd_	_	.	.	.	.	.	.
8g]	,	.	.	.	.	.	.	.	.
8f	yeah	.	.	.	.	.	.	.	.
=110	=110	=110	=110	=110	=110	=110	=110	=110	=110
8e	_	1d] g] b] dd]	!	1r	.	1r	.	1r	.
[8d	_	.	.	.	.	.	.	.	.
4d]	!	.	.	.	.	.	.	.	.
8r	.	.	.	.	.	.	.	.	.
8g	Ooh,	.	.	.	.	.	.	.	.
8g	whoa	.	.	.	.	.	.	.	.
8e	_	.	.	.	.	.	.	.	.
=111	=111	=111	=111	=111	=111	=111	=111	=111	=111
4.g	_	8r	.	1r	.	1r	.	1r	.
.	.	8d g b dd	Sanc-	.	.	.	.	.	.
.	.	8c f a cc	-ti-	.	.	.	.	.	.
8e	_	[8d g [b [dd	-fy	.	.	.	.	.	.
[2d	_	2d_ [g b_ dd_	_	.	.	.	.	.	.
=112	=112	=112	=112	=112	=112	=112	=112	=112	=112
4d]	!	1d] g] b] dd]	!	2r	.	1r	.	1r	.
4r	.	.	.	.	.	.	.	.	.
2r	.	.	.	8r	.	.	.	.	.
.	.	.	.	8g	Whoa	.	.	.	.
.	.	.	.	8g	_	.	.	.	.
.	.	.	.	8e	_	.	.	.	.
=113	=113	=113	=113	=113	=113	=113	=113	=113	=113
1r	.	8r	.	4.g	_	1r	.	1r	.
.	.	8d g b dd	Sanc-	.	.	.	.	.	.
.	.	8c f a cc	-ti-	.	.	.	.	.	.
.	.	[8d g [b [dd	-fy	8e	_	.	.	.	.
.	.	2d_ [g b_ dd_	_	[2d	_	.	.	.	.
=114	=114	=114	=114	=114	=114	=114	=114	=114	=114
8r	.	1d] g] b] dd]	!	4d]	!	1r	.	1r	.
[4.g	Mmm	.	.	.	.	.	.	.	.
.	.	.	.	4r	.	.	.	.	.
8g]	,	.	.	2r	.	.	.	.	.
8g	ooh	.	.	.	.	.	.	.	.
8g	whoa	.	.	.	.	.	.	.	.
8e	_	.	.	.	.	.	.	.	.
=115	=115	=115	=115	=115	=115	=115	=115	=115	=115
*	*	*	*	*clefG2	*	*	*	*	*
4.g	_	8r	.	8r	.	1r	.	1r	.
.	.	8d g b dd	Sanc-	8g	Sanc-	.	.	.	.
.	.	8c f a cc	-ti-	8g	-ti-	.	.	.	.
8e	_	[8d g [b [dd	-fy	[8g	-fy	.	.	.	.
2d	!	2d_ [g b_ dd_	_	4g]	,	.	.	.	.
.	.	.	.	8b-	yeah	.	.	.	.
.	.	.	.	8b-	_	.	.	.	.
=116	=116	=116	=116	=116	=116	=116	=116	=116	=116
2r	.	1d] g] b] dd]	!	8a	_	8r	.	2r	.
.	.	.	.	[8g	_	8d	Sanc-	.	.
.	.	.	.	2.g]	!	8d	-ti-	.	.
.	.	.	.	.	.	[8d	-fy	.	.
8r	.	.	.	.	.	4d]	!	8r	.
8B-	Sanc-	.	.	.	.	.	.	8g b	Ooh,
8B-	-ti-	.	.	.	.	4r	.	8g b	whoa
8B-	-fy	.	.	.	.	.	.	8e a	_
=117	=117	=117	=117	=117	=117	=117	=117	=117	=117
8A	your	8r	.	2r	.	1r	.	4.g b	_
8A	self,	8d g b dd	Sanc-	.	.	.	.	.	.
4r	.	8c f a cc	-ti-	.	.	.	.	.	.
.	.	[8d g [b [dd	-fy	.	.	.	.	8e a	_
8r	.	2d_ [g b_ dd_	_	8r	.	.	.	2d g	!
[8d	sanc-	.	.	[8b	Oh	.	.	.	.
8d]	_	.	.	8b]	_	.	.	.	.
8F	-ti-	.	.	8dd	_	.	.	.	.
=118	=118	=118	=118	=118	=118	=118	=118	=118	=118
4.G	-fy!	1d] g] b] dd]	!	16b-	_	2r	.	1r	.
.	.	.	.	16a	_	.	.	.	.
.	.	.	.	[8g	_	.	.	.	.
.	.	.	.	2.g]	!	.	.	.	.
8r	.	.	.	.	.	.	.	.	.
8r	.	.	.	.	.	4r	.	.	.
8g	Sanc-	.	.	.	.	.	.	.	.
8e	-ti-	.	.	.	.	4e	Oh	.	.
8g	-fy!	.	.	.	.	.	.	.	.
=119	=119	=119	=119	=119	=119	=119	=119	=119	=119
2r	.	8r	.	1r	.	1f	_	1r	.
.	.	8d g b dd	Sanc-	.	.	.	.	.	.
.	.	8c f a cc	-ti-	.	.	.	.	.	.
.	.	[8d g [b [dd	-fy	.	.	.	.	.	.
8r	.	2d_ [g b_ dd_	_	.	.	.	.	.	.
8B-	Sanc-	.	.	.	.	.	.	.	.
8B-	-ti-	.	.	.	.	.	.	.	.
8B-	-fy	.	.	.	.	.	.	.	.
=120	=120	=120	=120	=120	=120	=120	=120	=120	=120
8A	your-	1d] g] b] dd]	!	1r	.	1e	_	1r	.
8A	-self!	.	.	.	.	.	.	.	.
8r	.	.	.	.	.	.	.	.	.
[8e	Mmm	.	.	.	.	.	.	.	.
8e]	,	.	.	.	.	.	.	.	.
4.e	now,	.	.	.	.	.	.	.	.
=121	=121	=121	=121	=121	=121	=121	=121	=121	=121
8f	walk	8r	.	1r	.	1d	!	1r	.
8f	my	8d g b dd	Sanc-	.	.	.	.	.	.
2d	way!	8c f a cc	-ti-	.	.	.	.	.	.
.	.	[8d g [b [dd	-fy	.	.	.	.	.	.
.	.	2d_ [g b_ dd_	_	.	.	.	.	.	.
4r	.	.	.	.	.	.	.	.	.
=122	=122	=122	=122	=122	=122	=122	=122	=122	=122
8r	.	1d] g] b] dd]	!	1r	.	2r	.	1r	.
[4.e	Mmm	.	.	.	.	.	.	.	.
2e]	,	.	.	.	.	4r	.	.	.
.	.	.	.	.	.	4e	Oh	.	.
=123	=123	=123	=123	=123	=123	=123	=123	=123	=123
6f	walk	8r	.	4r	.	1f	_	1r	.
.	.	8d g b dd	Sanc-	.	.	.	.	.	.
6f	my	.	.	.	.	.	.	.	.
.	.	8c f a cc	-ti-	8r	.	.	.	.	.
12d	way	.	.	.	.	.	.	.	.
.	.	[8d g [b [dd	-fy	[8b	Yeah	.	.	.	.
[12c	_	.	.	.	.	.	.	.	.
2c]	!	2d_ [g b_ dd_	_	8b]	_	.	.	.	.
.	.	.	.	8dd	_	.	.	.	.
.	.	.	.	12b-	_	.	.	.	.
.	.	.	.	12a	_	.	.	.	.
.	.	.	.	12b-	_	.	.	.	.
=124	=124	=124	=124	=124	=124	=124	=124	=124	=124
4r	.	1d] g] b] dd]	!	12a	_	1e	...	1r	.
.	.	.	.	6g	!	.	.	.	.
8r	.	.	.	4r	.	.	.	.	.
[8f	Set	.	.	.	.	.	.	.	.
8f]	_	.	.	2r	.	.	.	.	.
8G	your-	.	.	.	.	.	.	.	.
4B-	-self...	.	.	.	.	.	.	.	.
=125	=125	=125	=125	=125	=125	=125	=125	=125	=125
1r	.	1r	.	1r	.	1r	.	1r	.
=126	=126	=126	=126	=126	=126	=126	=126	=126	=126
1r	.	1r	.	1r	.	1r	.	1r	.
*-	*-	*-	*-	*-	*-	*-	*-	*-	*-
!!!ENC: Nathaniel Condit-Schultz